X: 888
T: One Before We Go
N:"Collected by J.O'Neill"
B:O'Neill's 888
Z:Transcribed by Dan G. Petersen, dangp@post6.tele.dk
M:6/8
L:1/8
K:A
e|ABA cBA|cde efg|GAG BAG|dBG BAG|
ABA cBA|cde fga|e^de gdB|AcB A2:|
e|Ace aec|ece aec|Bdg gdB|dBG aec|
edc eaf|edc eaf|e^de gdB|AcB A2:|


